dist/img/svg/Weight.svg

<svg width="24" height="24" viewBox="0 0 24 24" fill="none" xmlns="http://www.w3.org/2000/svg">
<path d="M12 1C9.794 1 8 2.794 8 5H5C4.001 5 3.16967 5.69452 3.01367 6.72852L2.02149 19.7793C1.93449 20.3513 2.11277 20.9255 2.50977 21.3555C2.88877 21.7655 3.432 22 4 22H20C20.568 22 21.1113 21.7654 21.4883 21.3574C21.8873 20.9274 22.0653 20.3525 21.9863 19.8535L20.9883 6.72852L20.9785 6.65234C20.8305 5.69534 19.999 5 19 5H16C16 2.794 14.206 1 12 1ZM12 3C13.103 3 14 3.897 14 5H10C10 3.897 10.897 3 12 3ZM4.99805 7L19.0039 7.00586L20 20L4.00782 20.0059L4.99805 7ZM6.67578 8.95508V16.4199H8.31055V14.9238L8.77344 14.4629L9.91993 16.4199H11.793L9.83203 13.3262L11.6719 11.1641H9.71094L8.47657 12.6992L8.3125 12.918V8.95508H6.67578ZM14.4063 11.0684C13.9723 11.0684 13.5926 11.1794 13.2656 11.4004C12.9386 11.6214 12.6877 11.9387 12.5117 12.3457C12.3377 12.7537 12.25 13.2239 12.25 13.7539H12.252V13.8125C12.252 14.6355 12.4488 15.2913 12.8438 15.7812C13.2398 16.2723 13.7574 16.5156 14.3984 16.5156C14.8764 16.5156 15.2739 16.3431 15.5879 15.9961V16.1621C15.5879 16.9061 15.2231 17.2773 14.4981 17.2773C14.0001 17.2773 13.5989 17.0973 13.2949 16.7383L12.6094 17.7012C12.8004 17.9332 13.0765 18.1216 13.4375 18.2676C13.7985 18.4146 14.1716 18.4863 14.5566 18.4863C15.0936 18.4863 15.5666 18.3969 15.9746 18.2129C16.3836 18.0309 16.6932 17.7687 16.9082 17.4277C17.1252 17.0857 17.2324 16.6837 17.2324 16.2207V11.1641H15.7461L15.6875 11.6211C15.3815 11.2521 14.9533 11.0684 14.4063 11.0684ZM14.8242 12.3301C15.1742 12.3301 15.4279 12.4505 15.5859 12.6895V14.8984C15.4239 15.1344 15.1665 15.2539 14.8145 15.2539C14.5225 15.2539 14.2958 15.128 14.1348 14.877C13.9728 14.627 13.8906 14.2855 13.8906 13.8555C13.8906 13.3595 13.9747 12.9817 14.1387 12.7207C14.3047 12.4607 14.5322 12.3301 14.8242 12.3301Z" fill="#ACADAC"/>
</svg>

<svg width="24" height="24" viewBox="0 0 24 24" fill="none" xmlns="http://www.w3.org/2000/svg"><path d="M12 1C9.794 1 8 2.794 8 5H5c-.999 0-1.83.695-1.986 1.729l-.993 13.05a1.894 1.894 0 00.489 1.576c.379.41.922.645 1.49.645h16a2.03 2.03 0 001.488-.643c.4-.43.577-1.005.498-1.503l-.998-13.125-.01-.077C20.83 5.695 20 5 19 5h-3c0-2.206-1.794-4-4-4zm0 2c1.103 0 2 .897 2 2h-4c0-1.103.897-2 2-2zM4.998 7l14.006.006L20 20l-15.992.006L4.998 7zm1.678 1.955v7.465H8.31v-1.496l.462-.461L9.92 16.42h1.873l-1.961-3.094 1.84-2.162H9.71L8.477 12.7l-.165.219V8.955H6.676zm7.73 2.113c-.434 0-.813.111-1.14.332-.327.221-.578.539-.754.946-.174.408-.262.878-.262 1.408h.002v.059c0 .822.197 1.478.592 1.968.396.491.913.735 1.554.735.478 0 .876-.173 1.19-.52v.166c0 .744-.365 1.115-1.09 1.115-.498 0-.9-.18-1.203-.539l-.686.963c.191.232.467.42.829.567a2.94 2.94 0 001.119.218c.537 0 1.01-.09 1.418-.273.409-.182.718-.444.933-.785.217-.342.324-.744.324-1.207v-5.057h-1.486l-.059.457c-.305-.369-.734-.553-1.28-.553zm.418 1.262c.35 0 .604.12.762.36v2.208c-.162.236-.42.356-.771.356a.764.764 0 01-.68-.377c-.162-.25-.244-.591-.244-1.022 0-.495.084-.873.248-1.134.166-.26.393-.39.685-.39z" fill="#ACADAC"/></svg>
